app/client/src/assets/icons/blueprintjs/16px/outdated.svg

<svg xmlns="http://www.w3.org/2000/svg" width="16" height="16"><path fill-rule="evenodd" d="M8 0c4.42 0 8 3.58 8 8 0 4.06-3.02 7.4-6.94 7.92-.02 0-.04.01-.06.01-.33.04-.66.07-1 .07-4.42 0-8-3.58-8-8 0-.55.45-1 1-1s1 .45 1 1c0 3.31 2.69 6 6 6 .71 0 1.37-.15 2-.38v.01c2.33-.82 4-3.02 4-5.63 0-3.31-2.69-6-6-6-1.78 0-3.36.78-4.46 2H5c.55 0 1 .45 1 1s-.45 1-1 1H1c-.55 0-1-.45-1-1V1c0-.55.45-1 1-1s1 .45 1 1v1.74A7.95 7.95 0 0 1 8 0Zm1 12H7v-2h2v2Zm0-3H7V4h2v5Z"/></svg>

<?xml version="1.0" encoding="UTF-8"?>
<svg width="16px" height="16px" viewBox="0 0 16 16" version="1.1" xmlns="http://www.w3.org/2000/svg" xmlns:xlink="http://www.w3.org/1999/xlink">
    <!-- Generator: Sketch 49.1 (51147) - http://www.bohemiancoding.com/sketch -->
    <title>Artboard 2 Copy</title>
    <desc>Created with Sketch.</desc>
    <defs></defs>
    <g id="Artboard-2-Copy" stroke="none" stroke-width="1" fill="none" fill-rule="evenodd">
        <path d="M8,0 C12.42,0 16,3.58 16,8 C16,12.06 12.98,15.4 9.06,15.92 C9.04,15.92 9.02,15.93 9,15.93 C8.67,15.97 8.34,16 8,16 C3.58,16 0,12.42 0,8 C0,7.45 0.45,7 1,7 C1.55,7 2,7.45 2,8 C2,11.31 4.69,14 8,14 C8.71,14 9.37,13.85 10,13.62 L10,13.63 C12.33,12.81 14,10.61 14,8 C14,4.69 11.31,2 8,2 C6.22,2 4.64,2.78 3.54,4 L5,4 C5.55,4 6,4.45 6,5 C6,5.55 5.55,6 5,6 L1,6 C0.45,6 0,5.55 0,5 L0,1 C0,0.45 0.45,0 1,0 C1.55,0 2,0.45 2,1 L2,2.74 C3.46,1.07 5.6,0 8,0 Z M9,12 L7,12 L7,10 L9,10 L9,12 Z M9,9 L7,9 L7,4 L9,4 L9,9 Z" id="Combined-Shape" fill="#000000"></path>
    </g>
</svg>
